assets/icons/desktop/remote-filled.svg

<?xml version="1.0" encoding="UTF-8" standalone="no"?>
<svg
   viewBox="0 0 24 24"
   version="1.1"
   id="svg10"
   sodipodi:docname="remote-filled.svg"
   inkscape:version="1.2 (1:1.2.1+202207142221+cd75a1ee6d)"
   width="24"
   height="24"
   xmlns:inkscape="http://www.inkscape.org/namespaces/inkscape"
   xmlns:sodipodi="http://sodipodi.sourceforge.net/DTD/sodipodi-0.dtd"
   xmlns="http://www.w3.org/2000/svg"
   xmlns:svg="http://www.w3.org/2000/svg"
   xmlns:rdf="http://www.w3.org/1999/02/22-rdf-syntax-ns#"
   xmlns:cc="http://creativecommons.org/ns#"
   xmlns:dc="http://purl.org/dc/elements/1.1/">
  <metadata
     id="metadata16">
    <rdf:RDF>
      <cc:Work
         rdf:about="">
        <dc:format>image/svg+xml</dc:format>
        <dc:type
           rdf:resource="http://purl.org/dc/dcmitype/StillImage" />
      </cc:Work>
    </rdf:RDF>
  </metadata>
  <defs
     id="defs14" />
  <sodipodi:namedview
     pagecolor="#ffffff"
     bordercolor="#666666"
     borderopacity="1"
     objecttolerance="10"
     gridtolerance="10"
     guidetolerance="10"
     inkscape:pageopacity="0"
     inkscape:pageshadow="2"
     inkscape:window-width="1920"
     inkscape:window-height="1043"
     id="namedview12"
     showgrid="true"
     inkscape:zoom="19.445436"
     inkscape:cx="0.30855569"
     inkscape:cy="10.645171"
     inkscape:window-x="0"
     inkscape:window-y="0"
     inkscape:window-maximized="1"
     inkscape:current-layer="svg10"
     inkscape:pagecheckerboard="0"
     inkscape:showpageshadow="2"
     inkscape:deskcolor="#d1d1d1">
    <inkscape:grid
       type="xygrid"
       id="grid841" />
    <inkscape:grid
       type="xygrid"
       id="grid823"
       dotted="true"
       spacingx="0.5"
       spacingy="0.5"
       empspacing="10" />
  </sodipodi:namedview>
  <path
     id="path861"
     style="color:#000000;fill:#808080;fill-opacity:1;-inkscape-stroke:none"
     d="M 4.7871094 2 C 4.110165 2.00559 3.5365061 2.0481532 3.0273438 2.3027344 C 2.687902 2.4724552 2.397338 2.7651688 2.2304688 3.140625 C 2.0635991 3.5160812 2 3.9583349 2 4.5 L 2 14.5 C 2 15.041664 2.0635991 15.483918 2.2304688 15.859375 C 2.397338 16.234832 2.687902 16.527544 3.0273438 16.697266 C 3.706227 17.036706 4.500003 17 5.5 17 L 10 17 L 10 18 L 14 18 L 14 17 L 18.5 17 C 19.499997 17 20.293773 17.036709 20.972656 16.697266 C 21.312099 16.527544 21.602661 16.234832 21.769531 15.859375 C 21.936401 15.483918 22 15.041664 22 14.5 L 22 4.5 C 22 3.9583349 21.9364 3.5160812 21.769531 3.140625 C 21.602661 2.7651688 21.312099 2.4724552 20.972656 2.3027344 C 20.293773 1.9632926 19.499997 2 18.5 2 L 5.5 2 C 5.2500007 2 5.0127574 1.99814 4.7871094 2 z M 4.3496094 3 L 19.650391 3 C 20.398288 3 21 3.5805836 21 4.3007812 L 21 14.699219 C 21 15.419416 20.398288 16 19.650391 16 L 4.3496094 16 C 3.6017116 16 3 15.419416 3 14.699219 L 3 4.3007812 C 3 3.5805836 3.6017116 3 4.3496094 3 z M 5.1992188 4 C 4.5344207 4 4 4.4902116 4 5.0996094 L 4 13.900391 C 4 14.509788 4.5344207 15 5.1992188 15 L 18.800781 15 C 19.46558 15 20 14.509788 20 13.900391 L 20 5.0996094 C 20 4.4902116 19.46558 4 18.800781 4 L 5.1992188 4 z M 6.5 6 L 12.5 6 C 12.777 6 13 6.2230015 13 6.5 L 13 12.5 C 13 12.777 12.777 13 12.5 13 L 6.5 13 C 6.2230015 13 6 12.777 6 12.5 L 6 6.5 C 6 6.2230015 6.2230015 6 6.5 6 z M 16.5 6 L 17.5 6 C 17.777 6 18 6.2230012 18 6.5 L 18 7.5 C 18 7.7769988 17.777 8 17.5 8 L 16.5 8 C 16.223 8 16 7.7769988 16 7.5 L 16 6.5 C 16 6.2230012 16.223 6 16.5 6 z M 7 8 L 7 12 L 12 12 L 12 8 L 7 8 z M 16.5 10 L 17.5 10 C 17.777 10 18 10.223 18 10.5 L 18 11.5 C 18 11.777 17.777 12 17.5 12 L 16.5 12 C 16.223 12 16 11.777 16 11.5 L 16 10.5 C 16 10.223 16.223 10 16.5 10 z " />
  <path
     style="fill:#808080;stroke:none;stroke-width:1px;stroke-linecap:butt;stroke-linejoin:miter;fill-opacity:1"
     d="m 2,21 v 1 h 20 v -1 l -4,-2 h -12 z"
     id="path1610" />
</svg>

<svg width="24" height="24" xmlns="http://www.w3.org/2000/svg"><path style="color:#000;fill:gray;fill-opacity:1;-inkscape-stroke:none" d="M4.787 2c-.677.006-1.25.048-1.76.303-.34.17-.63.462-.797.838C2.064 3.516 2 3.958 2 4.5v10c0 .542.064.984.23 1.36.167.375.458.668.797.837.68.34 1.473.303 2.473.303H10v1h4v-1h4.5c1 0 1.794.037 2.473-.303.34-.17.63-.462.797-.838.166-.375.23-.817.23-1.359v-10c0-.542-.064-.984-.23-1.36a1.72 1.72 0 0 0-.797-.837C20.293 1.963 19.5 2 18.5 2h-13c-.25 0-.487-.002-.713 0zM4.35 3h15.3c.748 0 1.35.58 1.35 1.3v10.4c0 .72-.602 1.3-1.35 1.3H4.35C3.602 16 3 15.42 3 14.7V4.3C3 3.58 3.602 3 4.35 3zm.85 1C4.533 4 4 4.49 4 5.1v8.8c0 .61.534 1.1 1.2 1.1h13.6c.666 0 1.2-.49 1.2-1.1V5.1c0-.61-.534-1.1-1.2-1.1H5.2zm1.3 2h6c.277 0 .5.223.5.5v6c0 .277-.223.5-.5.5h-6a.499.499 0 0 1-.5-.5v-6c0-.277.223-.5.5-.5zm10 0h1c.277 0 .5.223.5.5v1c0 .277-.223.5-.5.5h-1a.499.499 0 0 1-.5-.5v-1c0-.277.223-.5.5-.5zM7 8v4h5V8H7zm9.5 2h1c.277 0 .5.223.5.5v1c0 .277-.223.5-.5.5h-1a.499.499 0 0 1-.5-.5v-1c0-.277.223-.5.5-.5z"/><path style="fill:gray;stroke:none;stroke-width:1px;stroke-linecap:butt;stroke-linejoin:miter;fill-opacity:1" d="M2 21v1h20v-1l-4-2H6z"/></svg>
